component-icons/svg/pdfviewer.svg

<?xml version="1.0" encoding="utf-8"?>
<!-- Generator: Adobe Illustrator 24.2.3, SVG Export Plug-In . SVG Version: 6.00 Build 0)  -->
<svg version="1.1" id="Layer_1" xmlns="http://www.w3.org/2000/svg" xmlns:xlink="http://www.w3.org/1999/xlink" x="0px" y="0px"
	 width="24px" height="24px" viewBox="0 0 24 24" enable-background="new 0 0 24 24" xml:space="preserve">
<path d="M12,0H0v2h12V0z M16,0h-2v2h2V0z M20,0h-2v2h2V0z M4,19h2v-3h2l2-2v-3L8,9H4V19z M6,11h2v3H6V11z M20,11h2l2-2h-6v10h2v-4h1
	l2-2h-3V11z M11,19h4l2-2v-6l-2-2h-4V19z M13,11h2v6h-2V11z M15.2,22H2V6h16v1.1h2V4H0v20h16l3-3h-2.8L15.2,22z"/>
</svg>

<svg id="Layer_1" data-name="Layer 1" xmlns="http://www.w3.org/2000/svg" viewBox="0 0 24 24">
  <defs>
    <style>
      .cls-1 {
        fill: gray;
      }
    </style>
  </defs>
  <title>pdfviewer</title>
  <path class="cls-1" d="M12,0H0V2H12Zm4,0H14V2h2Zm4,0H18V2h2ZM4,19H6V16H8l2-2V11L8,9H4Zm2-8H8v3H6Zm14,0h2l2-2H18V19h2V15h1l2-2H20Zm-9,8h4l2-2V11L15,9H11Zm2-8h2v6H13Zm2.18,11H2V6H18V7.13h2V4H0V24H16l3-3H16.19Z"/>
</svg>
